X:1
T:jp
T:John Williams Medley
T:By TROSEDOS
%%score 1 2 3 4
L:1/8
Q:1/4=165
M:4/4
K:Bb
V:1 bass nm="Trombone" snm="Tbn."
V:2 bass nm="Trombone" snm="Tbn."
V:3 bass nm="Tenor Trombone" snm="T. Tbn."
V:4 bass nm="Tenor Trombone" snm="T. Tbn."
V:1
"^\n" z8 | z8 | z8 | z8 |!f! z2 B,,2 F,4 | C,2 G,4 (G,A,) | B,3 B, A,2 F,2 |!<(! G,8!<)! | %8
!mf! D,4 D,4 | D,4 D,4 | E,8 | A,4 A,4 |!f! z2 B,,2 F,4 | C,2 G,4 (G,A,) | B,3 B, A,2 F,2 | %15
!<(! G,8!<)! |!mf! z2 B,2 A,4 | B,4 C4 | A,4 A,4 |!<(! ^C8!<)! | %20
[Q:1/4=110]"^\n\n"!ff! G,2 G,2 G,2 E,>.B, | G,2 E,>.B, G,4 |!f! D,2 D,2 D,2 E,2 | z4 G,4 | %24
!ff! G2 G,>.G, G2 ^F>.=F | .=E/._E/ =E2 ._A, _D2 C>._C | .B,/.A,/ B,2 .E, _G,2 E,>.=G, | %27
 B,2 G,>.B,!sfz! D4 |!mf! B,4 B,4 | C2 z z z3 z | B,2 z z z4 | D,2 z2 D,4 |[Q:1/4=135] _B,4 C4 | %33
[K:C]!f! G, z z G,/G,/ G,G, z2 | z2 z2 z2 E,>F, | G, C3- C2 D,>E, | F,4- F, z G,>A, | %37
 B, F3- F2 z2 | C z z C/C/ C/C/C z2 | G, z z G,/G,/ G,G, z2 | F, z z F,/F,/ F,/F,/F, z2 | %41
!f! (E2 D>)G, (E2 D>)G, | (E2 D>)G, F2 E>D | C4 E,2 E,,2- |[Q:1/4=120]!mp! E,,8 | z8 | %46
 E,,4 F,, z z2 | z8 | E,,2 .F,, z z2 E,,2 | .F,, z z2 z4 | !tenuto!E,,2 .F,,2 !tenuto!E,,2 .F,,2 | %51
 !tenuto!E,,2 .F,,2 !tenuto!E,,2 .F,,2 | .E,,.F,,.E,,.F,, .E,,.F,,.E,,.F,, | %53
 .E,,.F,,.E,,.F,, .E,,.F,,.E,,.F,, | D,,E,,.E,,.F,, D,,E,,.E,,.F,, | %55
 .E,,.F,,.E,,.F,, .E,,.F,,.E,,.F,, | D,,E,,.E,,.F,, D,,E,,.E,,.F,, | z8 | !>!D, z z z !>!D, z z z | %59
 .E,,.F,,.E,,.F,, .E,,.F,,.E,,.F,, | !>!D, z z z !>!D, z z z | .E,,.F,,.E,,.F,, .E,,.F,,.E,,.F,, | %62
 z8 | B,2 z2 _B,4 |[K:Bb][Q:1/4=155]!f! .D.D.D.D .D.D.^C.D | .E2 .D.^C .D2 B,2 | %66
 .C2 .C.=B, C2 (E,2 | .D,) z .G,B, ^C4 | .D.D.D.D .D.D.^C.D | F2 .E.D .E2 _A,2 | %70
 E2 .D.^C .D z .G,2 | B,4 A,2 .D,2 | z8 | z8 | z8 | z8 | z8 | z8 | z8 | z4 z z!f! .F,._G, | %80
 _A,4 _D,2 z2 | z2 z2 z2 =B,C | (DC).=B,.A, G,2 z2 | z2 z2 z2 G,A, | %84
"^rit." !>!B,2 !>!E,2!sfz! !fermata!F,4 |[M:2/4][Q:1/4=110] z2 =E_E |[M:4/4] =E2 =B,2 A,2 z2 | %87
 =E2 =B,2 A,2 E_E | E =B,3- B, z B,2 | =E4 _E4 | =E8 |] %91
V:2
!mf! B,4 z2 .B,.B, | B,4 z2 B,2 | B,4 z2 .B,.B, | B,4 z2 B,2 | B,,6 B,,2 | B,,6 B,,2 | D,4 D,4 | %7
!<(! E,8!<)! |!f! z2 B,2 A,2 F,2 | _G,3 D, (=G,A,) B,2 | B,,6 B,,D, | D,3 (=E,/D,/) _D,4 | %12
!mf! B,,6 B,,2 | B,,6 B,,2 | D,4 D,4 |!<(! E,8!<)! |!f! z2 B,2 A,2 F,2 | _G,2 D,2 C,D, E,2 | %18
 D,2 A,,D, G,2 D,A, |!<(! A,8!<)! |!mf! D,2 G,,2 D,2 E,,2 | G,,2 E,,2 D,4 | %22
!ff! D,2 D,2 D,2 E,>.B,, | _G,,2 E,,>.B,, =G,,4 |!f! .B,, z .B,, z .B,, z .B,, z | %25
 .=B,, z .B,, z ._B,, z .B,, z | .B,, z .B,, z .B,, z .B,, z | .F, z z2!sfz! A,4 | %28
!ff! G,2 G,,>.G,, G,2 ^F,>.=F, | .=E,/_E,/.=E, z ._A,, _D,2 C,>._C, | %30
 .B,,/.A,,/.B,, z E,, _G,,2 E,,>.B,, | G,,2 E,,>.B,, G,,4 | _B,,4 G,4 | %33
[K:C]!mf! C z z C/C/ CC z z | C z z C/C/ C/C/C z2 | G, z z G,/G,/ G,G, z2 | %36
 G, z z G,/G,/ G,/G,/G, z2 | z2 z2 z2 A,>B, | C2 D2 E z E,>F, | G, C3- C2 D>E | F4- F z G,>G, | %41
!mp! C,2 G,,>G,, C,2 G,,>G,, | C,2 G,,>G,, F,2 E,>D, | C,8 | z8 | z8 | z8 | z8 | z8 | z8 | %50
 !tenuto!E,,2 .F,,2 !tenuto!E,,2 .F,,2 | !tenuto!E,,2 .F,,2 !tenuto!E,,2 .F,,2 | %52
 .E,,.F,,.E,,.F,, .E,,.F,,.E,,.F,, | .E,,.F,,.E,,.F,, .E,,.F,,.E,,.F,, | %54
 !>!D,, z z z !>!D,, z z z | z8 | !>!D,, z z z !>!D,, z z z | z8 | %58
!f! z!sfz! !>!_B, z2 z B,!sfz! z z | z8 | z8 | z8 |!f! z!sfz! !>!_B, z2 z B,!sfz! z z | %63
 G,2 z2 _E,4 |[K:Bb]!mf! .D,.D,.D,.D, .D,.D,.^C,.D, | .E,2 .D,.^C, .D,2 B,,2 | %66
 .C,2 .C,.=B,, C,2 (E,2 | .D,) z .G,,.B,, ^C,4 | .D,.D,.D,.D, .D,.D,.^C,.D, | %69
 F,2 .E,.D, .E,2 _A,,2 | E,2 .D,.^C, .D, z .G,,2 | B,,4 A,,2 .D,2 |!mp! E,4 =E,4 | D,4 D,2 ^C,2 | %74
 D,4 =E,4 |!sfz! ^F,4- F, z!pp! z2 | D,4 =E,4 | F,4 ^F,2 =E,2 | F,4 G,4 | %79
!sfz! A,4- A, z!f! .F,._G, | (_A,_G,).F,.E, _D,2 z2 | z4 z2 =B,C | D4 G,2 z2 | z2 z2 z2 C,D, | %84
 !>!_A,,2 !>!A,,2!sfz! !fermata!F,,4 |[M:2/4] z4 |[M:4/4] =E,2 =B,,2 A,,2 E,_E, | %87
 =E,2 =B,,2 A,,2 E,_E, | E, =E,3- E, z =B,,2 | =B,4 _B,4 | ^G,8 |] %91
V:3
!mf! B,,4 z2 .B,,.B,, | B,,4 z2 B,,2 | B,,4 z2 .B,,.B,, | B,,4 z2 B,,2 |!f! z2 B,,2 F,4 | %5
 C,2 G,4 (G,A,) | B,3 B, A,2 F,2 |!<(! G,8!<)! |!mf! B,4 F,4 | E,4 G,4 | F,8 | D4 _D4 | %12
!f! z2 B,,2 F,4 | C,2 G,4 (G,A,) | B,3 B, A,2 F,2 |!<(! G,8!<)! |!mf! !>!B,,2 A,2 F,4 | G,4 C4 | %18
 D,4 C,4 |!<(! G,4 _G,4!<)! |!ff! G,2 G,2 G,2 E,>.B, | G,2 E,>.B, G,4 |!f! D,2 D,2 D,2 E,2 | %23
 z4 =B,4 |!mf! B,,4 B,,4 | A,,4 A,,4 | B,,8 | F,4!sfz! D4 |!ff! G2 G,>.G, G2 ^F>.=F | %29
 .=E/._E/.=E z ._A, _D2 C>._C | .B,/.A,/.B, z E, _G,2 E,>B, | G,2 E,>.B, G,4 | D,4 =E,4 | %33
[K:C]!f! F, z z F,/F,/ F,F, z2 | z2 z2 z2 E,>F, | G, C3- C2 D,>E, | C,4- C, z G,>A, | %37
 B, F3- F2 z2 | C, z z C,/C,/ C,/C,/C, z2 | F, z z F,/F,/ F,F, z2 | C, z z C,/C,/ C,/C,/C, z2 | %41
!f! (E2 D>)G, (E2 D>)G, | (E2 D>)G, F,2 E,>D, | E,8 | z8 | z8 | z8 | z8 | E,,2 .F,, z z2 E,,2 | %49
 .F,, z z2 z4 | !tenuto!E,,2 .F,,2 !tenuto!E,,2 .F,,2 | !tenuto!E,,2 .F,,2 !tenuto!E,,2 .F,,2 | %52
 .E,,.F,,.E,,.F,, .E,,.F,,.E,,.F,, | .E,,.F,,.E,,.F,, .E,,.F,,.E,,.F,, | %54
 !tenuto!D,,.E,,.E,,.F,, !tenuto!D,,.E,,.E,,.F,, | .E,,.F,,.E,,.F,, .E,,.F,,.E,,.F,, | %56
 !tenuto!D,,E,,.E,,.F,, D,,E,,.E,,.F,, |!mp! _G,/_B,/_D- D6- | D8- | D4 z z2 z | %60
 _G,/_B,/_D G,/B,/_E z2 G,/B,/D- | D3/2_E_B,_E, _D,7/2- | D,8 | .E,2 z2 G,4 | %64
[K:Bb]!p!!f! (A,4 A,4) | .G,2 z2 .A,2 F,2 | .G,2 z2 =E,2 (B,2 | .A,) z2 z F,4 | A,4 A,4 | %69
 .D,2 z2 G,2 C2 | B,2 z4 .D,2 | F,4 =E,2 .^F,2 |!ff! B,2 (A,B,) C2 (B,A,) | (B,C) (D2 B,2 A,2) | %74
 B,2 (C/B,/A,/B,/) C2 (D/C/B,/C/) |!sfz! D4- D z!ff! D,2 | B,2 (A,B,) C2 (B,C) | (_DE) (F2 D2 C2) | %78
 _D2 (E/D/C/D/) E2 (F/E/D/E/) |!sfz! F4- F z!f! z2 | z4 z2 _D,E, | _G,4 =B,,2 z2 | z4 z2 =E,F, | %83
 (G,F,).=E,.D, C,2 C,D, | !>!E,2 !>!_A,,2!sfz! !fermata!B,,4 |[M:2/4] z4 | %86
[M:4/4] =E2 =B,2 A,2 E_E | =E2 =B,2 A,2 E_E | E =E3- E z =B,2 | =E4 _E4 | =B,8 |] %91
V:4
!mf! D,4 z2 .D,.D, | D,4 z2 D,2 | D,4 z2 .D,.D, | D,4 z2 D,2 | F,6 F,2 | G,6 F,2 | G,6 F,2 | %7
!<(! C,8!<)! |!f! z2 B,2 A,2 F,2 | _G,3 D, (=G,A,) B,2 | B,,6 B,,D, | D,3 (=E,/D,/) _D,4 | %12
!mf! F,6 F,2 | G,6 F,2 | G,6 F,2 |!<(! C,8!<)! |!f! z2 B,2 A,2 F,2 | _G,2 D,2 C,D, E,2 | %18
 D,2 A,,D, G,2 D,A, |!<(! =E,8!<)! |!mf! D,4 G,,4 | D,4 D,4 |!ff! D2 D2 D2 E>.B, | %23
 _G,2 E,>.B, =G,4 |!ff! G,2 G,,>G,, G,2 ^F,>^F, | =E,/_E,/ =E,2 _A,, _D,2 C,>_C, | %26
 B,,/A,,/ B,,2 E,, _G,,2 E,,>=G,, | B,,2 G,,>.B,,!sfz! D,4 |!mf! B,,4 B,,4 | C,2 z z z4 | %30
 B,,3 z z4 | D,2 z2 D,4 | _B,,4 C,4 |[K:C]!mf! C, z z C,/C,/ C,C, z2 | C, z z C,/C,/ C,/C,/C, z2 | %35
 C, z z C,/C,/ C,C, z2 | F, z z F,/F,/ F,/F,/F, z2 | z2 z2 z2 A,>B, | C2 D2 E z E,>F, | %39
 G, C3- C2 D>E | C4- C z G,>G, |!mf! C2- C>G, C2- C>G, | C2- C>G, F2 E>D | G,8 | z8 | z8 | z8 | %47
 z8 | z8 | z8 | z8 | z8 | .E,,.F,,.E,,.F,, .E,,.F,,.E,,.F,, | .E,,.F,,.E,,.F,, .E,,.F,,.E,,.F,, | %54
 !>!D,, z z z !>!D,, z z z | z8 | !>!D,, z z z !>!D,, z z z | %57
!p! .E,,.F,,.E,,.F,, .E,,.F,,.E,,.F,, | .D,,.E,,.E,,.F,, .D,,.E,,.E,,.F,, | %59
 .E,,.F,,.E,,.F,, .E,,.F,,.E,,.F,, | .D,,.E,,.E,,.F,, .D,,.E,,.E,,.F,, | %61
 .E,,.F,,.E,,.F,, .E,,.F,,.E,,.F,, | z8 | .E,,2 z2 _E,4 |[K:Bb]!p! ^F,4 F,4 | .B,2 z2 .^F,2 D,2 | %66
 .=E,2 z2 G,2 (G,2 | .^F,2) z2 _A,4 | ^F,4 F,4 | .C,2 z2 .B,,2 E,2 | G,2 z4 .^F,2 | %71
 D,4 ^C,2 .A,,2 |!ff! B,,2 (A,,B,,) C,2 (B,,A,,) | (B,,C,) (D,2 B,,2 A,,2) | %74
 B,,2 (C,/B,,/A,,/B,,/) C,2 (D,/C,/B,,/C,/) |!sfz! D,4- D, z!ff! D,2 | B,,2 (A,,B,,) C,2 (B,,C,) | %77
 (_D,E,) (F,2 D,2 C,2) | _D,2 (E,/D,/C,/D,/) E,2 (F,/E,/D,/E,/) |!sfz! F,4- F, z!f! z2 | %80
 z4 z2 _D,E, | (_G,F,).E,._D, =B,, z2 z | z4 z2 =E,F, | G,4 C,2 CC | %84
 !>!_A,2 !>!C,2!sfz! !fermata!D,4 |[M:2/4] z2 =E,_E, |[M:4/4] =E,2 =B,,2 A,,2 z2 | %87
 =E,2 =B,,2 A,,2 E,_E, | E, =B,,3- B,, z B,,2 | =B,,4 _B,,4 | =B,,8 |] %91

